X:1
T:Sheen, 14.14.14.15
T:Sheen, 14.14.14.15
T:Gustav Theodore Holst, 1906
T:Public Domain Courtesy of the Cyber Hymnal™
C:Gustav Theodore Holst, 1906
Z:Public Domain
Z:Courtesy of the Cyber Hymnal™
%%score ( 1 2 ) ( 3 4 )
L:1/8
Q:1/4=110
M:3/4
K:G
V:1 treble 
V:2 treble 
V:3 bass 
V:4 bass 
V:1
 [B,D]2 | [CE]2 [DG]2 [DA]2 | [DB]2 [DG]2 (FE) | D2 [EG]2 [Ac]2 | [GB]2 A3 G | G4 G2 | %6
 [Ad]2 [FA]2 [GB]2 | [B,G]2 [A,F]2 E2 | [DF]2 [DG]2 [DA]2 | [DF]2 [^CE]3 D | D4 DD | %11
 [CE]2 [DG]2 [CA]2 | G3 z G [DG]2 | [DA]2 [=FB]2 [Gc]2 | [Gc]3 [GA] [GB]2 | [Gc]6 | %16
 z2 [FA]2 [FA]2 | [Gd]2 [Fc]2 [GB]2 | [GB]3 [FA] [EG]2 | [EG]2 [B,E]2 [EG]2 | G2 A3 z G | G4 |] %22
V:2
 x2 | x6 | x4 C2 | D2 x4 | x2 (G2 F)G | G4 G2 | x6 | x4 E2 | x6 | x5 D | D4 DD | x6 | B,2 C2 x3 | %13
 x6 | x6 | x6 | x6 | x6 | x6 | x6 | G2 G2 F2 x | G4 |] %22
V:3
 [G,,G,]2 | [C,G,]2 [B,,G,]2 [D,F,]2 | [G,,G,]2 [G,,B,]2 (A,F,) | [B,,G,]2 [E,B,]2 [A,,E]2 | %4
 [B,,D]2 [D,D]3 [G,B,] | [G,B,]4 [G,B,]2 | [F,A,]2 [D,D]2 [G,D]2 | (D^C) D2 [A,C]2 | %8
 [D,A,]2 [B,,D]2 [F,,^C]2 | [G,,B,]2 [A,,G,]3 [D,F,] | [D,F,]4 [B,,G,][B,,G,] | %11
 [C,G,]2 [B,,G,]2 [D,F,]2 | G,3 z G, [B,,G,]2 | [D,=F,]2 [D,D]2 [E,C]2 | [G,D]3 [G,E] [G,=F]2 | %15
 [C,E]6 | z2 [D,D]2 [C,D]2 | [B,,D]2 [A,,A,]2 [G,,B,]2 | [A,,C]2 [B,,D]2 E2 | %19
 [E,B,]2 [E,G,]2 (B,C) | [B,,D]2 [D,D]2 [D,C]2 x | [G,,B,]4 |] %22
V:4
 x2 | x6 | x4 A,,2 | x6 | x6 | x6 | x6 | E,2 (F,G,) x2 | x6 | x6 | x6 | x6 | G,,2 A,,2 x3 | x6 | %14
 x6 | x6 | x6 | x6 | x4 (C,D,) | x4 E,2 | x7 | x4 |] %22

